boxicons/svg/solid/bxs-food-menu.svg

<svg xmlns="http://www.w3.org/2000/svg" width="24" height="24" viewBox="0 0 24 24"><path d="M3 2H5V22H3zM19 2h-5-.063H6v20h7.938H14h5c1.103 0 2-.897 2-2V4C21 2.897 20.103 2 19 2zM18 12H9v-2h9V12zM18 8H9V6h9V8z"/></svg>

<svg xmlns="http://www.w3.org/2000/svg" width="24" height="24" viewBox="0 0 24 24"><path d="M3 2h2v20H3zm16 0H6v20h13c1.103 0 2-.897 2-2V4c0-1.103-.897-2-2-2zm-1 10H9v-2h9v2zm0-4H9V6h9v2z"/></svg>
